X:128
T: Xiaochanggong
N: C1622
O: China, Zhejiang, Yuhang
S: III, 632]
R: Shange. Suku]
M: 2/4
L: 1/8
K: G
EGAA | GdA2 | Add2 | A4 | d2A2 | G4
EGAA | Aed2 | E4 | ddd2 | A4 | d2A2 | G4
EGAA | Aed2 | E4 | Add2 | A4 | GAG2
EGAA | GBA2 | ddd2 | A4 | G2A2 | G4

